src/assets/icons/work-4.svg

<svg width="47" height="47" viewBox="0 0 47 47" fill="none" xmlns="http://www.w3.org/2000/svg">
<path fill-rule="evenodd" clip-rule="evenodd" d="M7.34375 35.25C8.15492 35.25 8.8125 35.9076 8.8125 36.7188V38.1875H10.2812C11.0924 38.1875 11.75 38.8451 11.75 39.6562C11.75 40.4674 11.0924 41.125 10.2812 41.125H8.8125C8.03343 41.125 7.28626 40.8155 6.73537 40.2646C6.18449 39.7137 5.875 38.9666 5.875 38.1875V36.7188C5.875 35.9076 6.53258 35.25 7.34375 35.25Z" fill="white"/>
<path fill-rule="evenodd" clip-rule="evenodd" d="M14.6875 16.1562C14.6875 15.3451 15.3451 14.6875 16.1562 14.6875H20.5625C21.3737 14.6875 22.0312 15.3451 22.0312 16.1562C22.0312 16.9674 21.3737 17.625 20.5625 17.625H16.1562C15.3451 17.625 14.6875 16.9674 14.6875 16.1562Z" fill="white"/>
<path fill-rule="evenodd" clip-rule="evenodd" d="M16.1562 39.6562C16.1562 38.8451 16.8138 38.1875 17.625 38.1875H20.5625C21.3737 38.1875 22.0312 38.8451 22.0312 39.6562C22.0312 40.4674 21.3737 41.125 20.5625 41.125H17.625C16.8138 41.125 16.1562 40.4674 16.1562 39.6562Z" fill="white"/>
<path fill-rule="evenodd" clip-rule="evenodd" d="M30.8438 24.9688C31.6549 24.9688 32.3125 25.6263 32.3125 26.4375V30.8438C32.3125 31.6549 31.6549 32.3125 30.8438 32.3125C30.0326 32.3125 29.375 31.6549 29.375 30.8438V26.4375C29.375 25.6263 30.0326 24.9688 30.8438 24.9688Z" fill="white"/>
<path fill-rule="evenodd" clip-rule="evenodd" d="M7.34375 24.9688C8.15492 24.9688 8.8125 25.6263 8.8125 26.4375V29.375C8.8125 30.1862 8.15492 30.8438 7.34375 30.8438C6.53258 30.8438 5.875 30.1862 5.875 29.375V26.4375C5.875 25.6263 6.53258 24.9688 7.34375 24.9688Z" fill="white"/>
<path fill-rule="evenodd" clip-rule="evenodd" d="M30.8438 35.25C31.6549 35.25 32.3125 35.9076 32.3125 36.7188V38.1875C32.3125 38.9666 32.003 39.7137 31.4521 40.2646C30.9012 40.8155 30.1541 41.125 29.375 41.125H27.9062C27.0951 41.125 26.4375 40.4674 26.4375 39.6562C26.4375 38.8451 27.0951 38.1875 27.9062 38.1875H29.375V36.7188C29.375 35.9076 30.0326 35.25 30.8438 35.25Z" fill="white"/>
<path fill-rule="evenodd" clip-rule="evenodd" d="M26.4375 16.1562C26.4375 15.3451 27.0951 14.6875 27.9062 14.6875H29.375C30.1541 14.6875 30.9012 14.997 31.4521 15.5479C32.003 16.0988 32.3125 16.8459 32.3125 17.625V19.0938C32.3125 19.9049 31.6549 20.5625 30.8438 20.5625C30.0326 20.5625 29.375 19.9049 29.375 19.0938L29.375 17.625L27.9062 17.625C27.0951 17.625 26.4375 16.9674 26.4375 16.1562Z" fill="white"/>
<path fill-rule="evenodd" clip-rule="evenodd" d="M6.73537 15.5479C7.28626 14.997 8.03343 14.6875 8.8125 14.6875H10.2812C11.0924 14.6875 11.75 15.3451 11.75 16.1562C11.75 16.9674 11.0924 17.625 10.2812 17.625L8.8125 17.625L8.8125 19.0938C8.8125 19.9049 8.15492 20.5625 7.34375 20.5625C6.53258 20.5625 5.875 19.9049 5.875 19.0938V17.625C5.875 16.8459 6.18449 16.0988 6.73537 15.5479Z" fill="white"/>
<path fill-rule="evenodd" clip-rule="evenodd" d="M15.5479 6.73537C16.0988 6.18449 16.8459 5.875 17.625 5.875H38.1875C38.9666 5.875 39.7137 6.18449 40.2646 6.73537C40.8155 7.28626 41.125 8.03343 41.125 8.8125V29.375C41.125 30.1541 40.8155 30.9012 40.2646 31.4521C39.7137 32.003 38.9666 32.3125 38.1875 32.3125H30.8438C30.0326 32.3125 29.375 31.6549 29.375 30.8438C29.375 30.0326 30.0326 29.375 30.8438 29.375H38.1875V8.8125H17.625L17.625 16.1562C17.625 16.9674 16.9674 17.625 16.1562 17.625C15.3451 17.625 14.6875 16.9674 14.6875 16.1562V8.8125C14.6875 8.03343 14.997 7.28626 15.5479 6.73537Z" fill="white"/>
</svg>

<svg width="47" height="47" fill="none" xmlns="http://www.w3.org/2000/svg"><path fill-rule="evenodd" clip-rule="evenodd" d="M7.344 35.25c.81 0 1.468.658 1.468 1.469v1.468h1.47a1.469 1.469 0 1 1 0 2.938h-1.47a2.937 2.937 0 0 1-2.937-2.938V36.72c0-.811.658-1.469 1.469-1.469zM14.688 16.156c0-.81.657-1.468 1.468-1.468h4.407a1.469 1.469 0 1 1 0 2.937h-4.407a1.469 1.469 0 0 1-1.468-1.469zM16.156 39.656c0-.81.658-1.468 1.469-1.468h2.938a1.469 1.469 0 1 1 0 2.937h-2.938a1.469 1.469 0 0 1-1.469-1.469zM30.844 24.969c.81 0 1.468.657 1.468 1.468v4.407a1.469 1.469 0 0 1-2.937 0v-4.407c0-.81.658-1.468 1.469-1.468zM7.344 24.969c.81 0 1.468.657 1.468 1.468v2.938a1.469 1.469 0 1 1-2.937 0v-2.938c0-.81.658-1.468 1.469-1.468zM30.844 35.25c.81 0 1.468.658 1.468 1.469v1.468a2.937 2.937 0 0 1-2.937 2.938h-1.469a1.469 1.469 0 0 1 0-2.938h1.469V36.72c0-.811.658-1.469 1.469-1.469zM26.438 16.156c0-.81.657-1.468 1.468-1.468h1.469a2.937 2.937 0 0 1 2.938 2.937v1.469a1.469 1.469 0 0 1-2.938 0v-1.469h-1.469a1.469 1.469 0 0 1-1.468-1.469zM6.735 15.548c.551-.551 1.298-.86 2.077-.86h1.47a1.469 1.469 0 1 1 0 2.937h-1.47v1.469a1.469 1.469 0 0 1-2.937 0v-1.469c0-.78.31-1.526.86-2.077z" fill="#fff"/><path fill-rule="evenodd" clip-rule="evenodd" d="M15.548 6.735c.55-.55 1.298-.86 2.077-.86h20.563a2.937 2.937 0 0 1 2.937 2.938v20.562a2.937 2.937 0 0 1-2.938 2.938h-7.343a1.469 1.469 0 1 1 0-2.938h7.343V8.812H17.625v7.344a1.469 1.469 0 1 1-2.938 0V8.813c0-.78.31-1.527.86-2.078z" fill="#fff"/></svg>
